X: 1
T: Mr. Toad's Wild Ride
M: 6/8
L: 1/8
R: jig
K: Gmaj
|:&quot;G&quot;GAB BAG|&quot;C&quot;c2c &quot;G&quot;BAG-|&quot;Em&quot;G2AB2A|&quot;Bm&quot;GED&quot;C&quot;E3|
&quot;G&quot;GAB BAG|&quot;C&quot;e2e &quot;G&quot;dBd|&quot;C&quot;ege&quot;Em&quot;d2B|1&quot;Am&quot;ABG&quot;D&quot;E2D:|2&quot;Am&quot;ABG &quot;D&quot;E GA||
|:&quot;F&quot;BGG AGG|BGG AGA|&quot;Em&quot;BGG AGG|ABG EDD|
&quot;F&quot;BGG cGG|dGG dBe|1&quot;G&quot;d2d3 d-|dBG &quot;D&quot;AGA:|2&quot;G&quot;d2d3 d-|dBG &quot;D&quot;A3||
